svg/emoji_u1f558.svg

<svg xmlns="http://www.w3.org/2000/svg" viewBox="0 0 128 128" width="512px" height="512px"><path d="M64 121.74c-31.84 0-57.74-25.9-57.74-57.73C6.27 32.17 32.16 6.26 64 6.26c31.83 0 57.73 25.9 57.73 57.74 0 31.83-25.89 57.74-57.73 57.74z" fill="#fff"/><path d="M64 .11C28.77.11.1 28.77.1 64.01.1 99.24 28.77 127.9 64 127.9s63.9-28.66 63.9-63.89C127.9 28.77 99.24.11 64 .11zm0 121.63c-31.84 0-57.74-25.9-57.74-57.73C6.27 32.17 32.16 6.26 64 6.26c31.83 0 57.73 25.9 57.73 57.74 0 31.83-25.89 57.74-57.73 57.74z" fill="#40c0e7"/><path d="M68.61 55.42V11.33H59.4v44.08a9.78 9.78 0 0 0-3.98 3.98l-24.71-.01v9.21h24.71c1.65 3.07 4.85 5.17 8.58 5.17 5.4 0 9.78-4.37 9.78-9.78.01-3.71-2.11-6.91-5.17-8.56zm-1.2 9.96a3.71 3.71 0 0 1-1.96 2.01c-.02 0-.04.01-.06.02-.43.18-.9.28-1.39.28-.5 0-.96-.1-1.4-.28-.02-.01-.04-.02-.06-.02A3.687 3.687 0 0 1 60.31 64c0-2.04 1.65-3.68 3.69-3.68 1.55 0 2.87.96 3.41 2.31.17.43.28.89.28 1.38 0 .48-.11.94-.28 1.37z" fill="#2f2f2f"/><ellipse cx="113.93" cy="64.01" rx="3.69" ry="3.68" fill="#2f2f2f"/><path d="M109.08 42.23a3.691 3.691 0 0 0 1.35-5.03 3.671 3.671 0 0 0-5.03-1.35c-1.76 1.01-2.36 3.27-1.35 5.03a3.673 3.673 0 0 0 5.03 1.35zM90.81 17.57a3.671 3.671 0 0 0-5.03 1.35 3.68 3.68 0 0 0 1.35 5.03c1.77 1.02 4.02.42 5.04-1.35 1-1.76.4-4.01-1.36-5.03z" fill="#2f2f2f"/><ellipse transform="rotate(-29.988 39.038 20.76)" cx="39.04" cy="20.76" rx="3.68" ry="3.68" fill="#2f2f2f"/><path d="M22.6 35.84a3.677 3.677 0 1 0-3.68 6.37c1.76 1.02 4.02.42 5.03-1.35 1.02-1.75.41-4-1.35-5.02zm-8.53 24.48c-2.03 0-3.68 1.65-3.68 3.68 0 2.04 1.65 3.68 3.68 3.68 2.03 0 3.68-1.65 3.68-3.69 0-2.03-1.65-3.67-3.68-3.67zm4.84 25.46c-1.76 1.01-2.36 3.27-1.35 5.03a3.691 3.691 0 0 0 5.03 1.35 3.683 3.683 0 0 0 1.35-5.04c-1.01-1.76-3.26-2.36-5.03-1.34zm21.96 18.27a3.68 3.68 0 0 0-5.03 1.35 3.691 3.691 0 0 0 1.35 5.03 3.68 3.68 0 0 0 5.03-1.35c1.02-1.75.41-4.01-1.35-5.03zm23.12 6.2a3.67 3.67 0 0 0-3.68 3.68c0 2.03 1.65 3.68 3.68 3.68 2.03 0 3.69-1.65 3.68-3.68.02-2.03-1.64-3.68-3.68-3.68zm23.13-6.19a3.671 3.671 0 0 0-1.35 5.03 3.682 3.682 0 0 0 5.03 1.35 3.671 3.671 0 0 0 1.35-5.03 3.671 3.671 0 0 0-5.03-1.35zm21.96-18.28a3.68 3.68 0 0 0-5.03 1.35 3.671 3.671 0 0 0 1.35 5.03c1.76 1.01 4.01.41 5.03-1.35 1.02-1.75.42-4.02-1.35-5.03z" fill="#2f2f2f"/></svg>

<?xml version="1.0" encoding="utf-8"?>
<!-- Generator: Adobe Illustrator 19.2.1, SVG Export Plug-In . SVG Version: 6.00 Build 0)  -->
<svg version="1.1" id="レイヤー_1" xmlns="http://www.w3.org/2000/svg" xmlns:xlink="http://www.w3.org/1999/xlink" x="0px"
	 y="0px" viewBox="0 0 128 128" style="enable-background:new 0 0 128 128;" xml:space="preserve">
<g>
	<path style="fill:#FFFFFF;" d="M64,121.74c-31.84,0-57.74-25.9-57.74-57.73C6.27,32.17,32.16,6.26,64,6.26
		c31.83,0,57.73,25.9,57.73,57.74C121.73,95.83,95.84,121.74,64,121.74z"/>
	<g>
		<path style="fill:#40C0E7;" d="M64,0.11c-35.23,0-63.9,28.66-63.9,63.9c0,35.23,28.67,63.89,63.9,63.89
			c35.23,0,63.9-28.66,63.9-63.89C127.9,28.77,99.24,0.11,64,0.11z M64,121.74c-31.84,0-57.74-25.9-57.74-57.73
			C6.27,32.17,32.16,6.26,64,6.26c31.83,0,57.73,25.9,57.73,57.74C121.73,95.83,95.84,121.74,64,121.74z"/>
		<path style="fill:#2F2F2F;" d="M68.61,55.42V11.33H59.4v44.08c-1.69,0.91-3.07,2.29-3.98,3.98l-24.71-0.01v9.21h24.71
			c1.65,3.07,4.85,5.17,8.58,5.17c5.4,0,9.78-4.37,9.78-9.78C73.79,60.27,71.67,57.07,68.61,55.42z M67.41,65.38
			c-0.36,0.9-1.07,1.62-1.96,2.01c-0.02,0-0.04,0.01-0.06,0.02c-0.43,0.18-0.9,0.28-1.39,0.28c-0.5,0-0.96-0.1-1.4-0.28
			c-0.02-0.01-0.04-0.02-0.06-0.02c-1.31-0.56-2.23-1.87-2.23-3.39c0-2.04,1.65-3.68,3.69-3.68c1.55,0,2.87,0.96,3.41,2.31
			c0.17,0.43,0.28,0.89,0.28,1.38C67.69,64.49,67.58,64.95,67.41,65.38z"/>
		<ellipse style="fill:#2F2F2F;" cx="113.93" cy="64.01" rx="3.69" ry="3.68"/>
		<path style="fill:#2F2F2F;" d="M109.08,42.23c1.76-1.02,2.36-3.27,1.35-5.03c-1.01-1.77-3.27-2.37-5.03-1.35
			c-1.76,1.01-2.36,3.27-1.35,5.03C105.07,42.65,107.32,43.25,109.08,42.23z"/>
		<path style="fill:#2F2F2F;" d="M90.81,17.57c-1.76-1.02-4.02-0.42-5.03,1.35c-1.02,1.76-0.41,4.02,1.35,5.03
			c1.77,1.02,4.02,0.42,5.04-1.35C93.17,20.84,92.57,18.59,90.81,17.57z"/>
		
			<ellipse transform="matrix(0.8661 -0.4998 0.4998 0.8661 -5.1503 22.2904)" style="fill:#2F2F2F;" cx="39.04" cy="20.76" rx="3.68" ry="3.68"/>
		<path style="fill:#2F2F2F;" d="M22.6,35.84c-1.76-1.02-4.02-0.41-5.03,1.34c-1.02,1.77-0.41,4.02,1.35,5.03
			c1.76,1.02,4.02,0.42,5.03-1.35C24.97,39.11,24.36,36.86,22.6,35.84z"/>
		<path style="fill:#2F2F2F;" d="M14.07,60.32c-2.03,0-3.68,1.65-3.68,3.68c0,2.04,1.65,3.68,3.68,3.68c2.03,0,3.68-1.65,3.68-3.69
			C17.75,61.96,16.1,60.32,14.07,60.32z"/>
		<path style="fill:#2F2F2F;" d="M18.91,85.78c-1.76,1.01-2.36,3.27-1.35,5.03c1.02,1.76,3.27,2.36,5.03,1.35
			c1.77-1.02,2.37-3.27,1.35-5.04C22.93,85.36,20.68,84.76,18.91,85.78z"/>
		<path style="fill:#2F2F2F;" d="M40.87,104.05c-1.77-1.02-4.01-0.41-5.03,1.35c-1.01,1.76-0.41,4.01,1.35,5.03
			c1.76,1.02,4.02,0.41,5.03-1.35C43.24,107.33,42.63,105.07,40.87,104.05z"/>
		<path style="fill:#2F2F2F;" d="M63.99,110.25c-2.04,0-3.68,1.64-3.68,3.68c0,2.03,1.65,3.68,3.68,3.68c2.03,0,3.69-1.65,3.68-3.68
			C67.69,111.9,66.03,110.25,63.99,110.25z"/>
		<path style="fill:#2F2F2F;" d="M87.12,104.06c-1.77,1.02-2.37,3.26-1.35,5.03c1.02,1.76,3.27,2.37,5.03,1.35
			c1.77-1.01,2.37-3.27,1.35-5.03C91.14,103.64,88.88,103.04,87.12,104.06z"/>
		<path style="fill:#2F2F2F;" d="M109.08,85.78c-1.76-1.02-4.02-0.41-5.03,1.35c-1.02,1.77-0.42,4.01,1.35,5.03
			c1.76,1.01,4.01,0.41,5.03-1.35C111.45,89.06,110.85,86.79,109.08,85.78z"/>
	</g>
</g>
</svg>
